images/gogoro_logo.svg

<?xml version="1.0" encoding="UTF-8" standalone="no"?>
<svg width="100px" height="28px" viewBox="0 0 100 28" version="1.1" xmlns="http://www.w3.org/2000/svg" xmlns:xlink="http://www.w3.org/1999/xlink">
    <!-- Generator: sketchtool 3.6.1 (26313) - http://www.bohemiancoding.com/sketch -->
    <title>logo_light</title>
    <desc>Created with sketchtool.</desc>
    <defs></defs>
    <g id="-Components" stroke="none" stroke-width="1" fill="none" fill-rule="evenodd">
        <g id="Desktop-HD" transform="translate(-1226.000000, -593.000000)">
            <g id="logo_light" transform="translate(1226.000000, 592.000000)">
                <path d="M97.4501579,6.71938053 C95.8784852,5.14540443 93.6925779,4.1682596 91.2927122,4.16851553 C88.8925906,4.1682596 86.7077071,5.14540443 85.1352666,6.71938053 C83.5620583,8.29054139 82.5851694,10.4764487 82.5851694,12.8763143 C82.5851694,15.2764359 83.5620583,17.4618314 85.1352666,19.0335041 C86.7066834,20.6069683 88.8925906,21.584625 91.2927122,21.5841132 C93.6930898,21.584625 95.8789971,20.6069683 97.4501579,19.0335041 C99.0236222,17.4618314 100.001023,15.2759241 99.9999992,12.8763143 C100.001023,10.4764487 99.0236222,8.29054139 97.4501579,6.71938053 M95.4561989,17.0395451 C94.3861511,18.1072895 92.9229932,18.7637527 91.2927122,18.7642646 C89.6631991,18.7637527 88.1995293,18.1072895 87.1294815,17.0395451 C86.0622489,15.9697532 85.4057857,14.5063393 85.4052738,12.8763143 C85.4057857,11.2460334 86.0622489,9.78287547 87.1294815,8.71282766 C88.1995293,7.64559508 89.6631991,6.98913188 91.2927122,6.98862002 C92.9229932,6.98913188 94.3861511,7.64559508 95.4561989,8.71282766 C96.5239434,9.78287547 97.1798947,11.2460334 97.1804066,12.8763143 C97.1798947,14.5063393 96.5239434,15.9697532 95.4561989,17.0395451 Z M84.9860843,3.43709012 C85.1596056,3.32678383 85.1445057,3.17527263 85.0871771,3.06163923 L83.8530775,1.1216817 C83.7494254,0.958141749 83.6017532,0.990644995 83.5001485,1.04055155 C81.660516,2.17458214 77.1139005,6.09698176 77.1144123,12.8763399 L77.1144123,20.8770012 C77.1274648,21.0036871 77.1963103,21.1393306 77.3933772,21.1434254 L79.6563198,21.1434254 C79.8500596,21.1393306 79.9196728,21.0082938 79.9342609,20.8833995 L79.9342609,12.8763399 C79.9342609,7.03804031 84.0547512,4.02982648 84.9860843,3.43709012 Z M72.4054854,6.71938053 C70.8348364,5.14540443 68.6484172,4.1682596 66.2485515,4.16851553 C63.8489418,4.1682596 61.6630345,5.14540443 60.0913618,6.71938053 C58.5184094,8.29054139 57.5404968,10.4764487 57.5415205,12.8763143 C57.5404968,15.2759241 58.5184094,17.4618314 60.0913618,19.0335041 C61.6630345,20.6069683 63.8489418,21.584625 66.2485515,21.5841132 C68.6489291,21.584625 70.8348364,20.6069683 72.4054854,19.0335041 C73.9799733,17.4618314 74.9563504,15.2759241 74.9563504,12.8763143 C74.9563504,10.4764487 73.9799733,8.29054139 72.4054854,6.71938053 Z M70.4120382,17.0395451 C69.3419904,18.1072895 67.8783206,18.7637527 66.2485515,18.7642646 C64.6185265,18.7637527 63.1553686,18.1072895 62.0858326,17.0395451 C61.0175763,15.9697532 60.3621369,14.5063393 60.361625,12.8763143 C60.3621369,11.2460334 61.0175763,9.78287547 62.0858326,8.71282766 C63.1553686,7.64559508 64.6185265,6.98913188 66.2485515,6.98862002 C67.8793443,6.98913188 69.3419904,7.64559508 70.4120382,8.71282766 C71.4792708,9.78287547 72.135734,11.2460334 72.1362459,12.8763143 C72.135734,14.5063393 71.4797827,15.9697532 70.4120382,17.0395451 Z M53.1784588,6.71938053 C51.6075539,5.14540443 49.4216466,4.1682596 47.021269,4.16851553 C44.6219152,4.1682596 42.4360079,5.1459163 40.8643352,6.71938053 C39.2916388,8.29054139 38.3139821,10.4764487 38.3139821,12.8763143 C38.3139821,15.2764359 39.2916388,17.4618314 40.8643352,19.0335041 C42.4360079,20.6069683 44.6214034,21.584625 47.021269,21.5841132 C49.2724387,21.584625 51.3347313,20.7246966 52.8785076,19.319635 L52.8785076,20.1378467 C52.8779957,21.7681276 52.2217884,23.2312855 51.154044,24.3013334 C50.084508,25.3685659 48.6210942,26.0250291 46.9910692,26.025541 C45.4526675,26.0250291 44.0642414,25.4402266 43.0131325,24.4769021 C42.9238126,24.4075448 42.7994301,24.3642924 42.6742798,24.454892 L41.0150786,26.1143491 C40.9088672,26.2402672 40.9385552,26.3646497 41.0040736,26.4570408 C42.5609023,27.934019 44.674893,28.8459014 46.9910692,28.8456455 C49.3909348,28.8459014 51.5765862,27.8687566 53.1482589,26.2952923 C54.7217231,24.7236196 55.6991239,22.5382242 55.6981002,20.1378467 C55.6981002,20.1378467 55.7288119,13.1125387 55.7288119,12.8763143 C55.7293238,10.4764487 54.7524349,8.29054139 53.1784588,6.71938053 Z M52.90666,12.8763143 L52.8787635,13.475449 C52.7390251,14.8636191 52.1199279,16.1028374 51.1847557,17.0395451 C50.1147079,18.1072895 48.6518059,18.7637527 47.021269,18.7642646 C45.3915,18.7637527 43.9285979,18.1072895 42.8585501,17.0395451 C41.7910616,15.9697532 41.1348544,14.5063393 41.1343425,12.8763143 C41.1348544,11.2460334 41.7910616,9.78287547 42.8585501,8.71282766 C43.9280861,7.64508322 45.3909881,6.98913188 47.021269,6.98862002 C48.6518059,6.98913188 50.1147079,7.64559508 51.1847557,8.71282766 C52.2525002,9.78287547 52.9084515,11.2460334 52.9089634,12.8763143 L52.90666,12.8763143 Z M33.9936352,6.71938053 C32.4222184,5.14540443 30.2363112,4.1682596 27.8364455,4.16851553 C25.4365798,4.1682596 23.2511844,5.14540443 21.6795117,6.71938053 C20.1063034,8.29054139 19.1286467,10.4764487 19.1296704,12.8763143 C19.1286467,15.2759241 20.1063034,17.4618314 21.6795117,19.0335041 C23.2506725,20.6069683 25.4365798,21.584625 27.8364455,21.5841132 C30.2363112,21.584625 32.4222184,20.6069683 33.9936352,19.0335041 C35.5670995,17.4618314 36.5445002,15.2764359 36.5439884,12.8763143 C36.5445002,10.4764487 35.5670995,8.29054139 33.9936352,6.71938053 Z M31.9999322,17.0395451 C30.9298844,18.1072895 29.4664705,18.7637527 27.8364455,18.7642646 C26.2061646,18.7637527 24.7432625,18.1072895 23.6737266,17.0395451 C22.6062381,15.9697532 21.9500308,14.5063393 21.949519,12.8763143 C21.9500308,11.2460334 22.6062381,9.78287547 23.6737266,8.71282766 C24.7432625,7.64559508 26.2061646,6.98913188 27.8364455,6.98862002 C29.4664705,6.98913188 30.9298844,7.64559508 31.9999322,8.71282766 C33.0676766,9.78287547 33.723628,11.2460334 33.7241398,12.8763143 C33.723628,14.5063393 33.0676766,15.9694973 31.9999322,17.0395451 Z M14.8644767,6.71938053 C13.2935718,5.14540443 11.1076645,4.1682596 8.70728695,4.16851553 C6.30793315,4.1682596 4.12202586,5.1459163 2.55035314,6.71938053 C0.977656697,8.29054139 0,10.4764487 0,12.8763143 C0,15.2764359 0.977656697,17.4618314 2.55035314,19.0335041 C4.12202586,20.6069683 6.30742129,21.584625 8.70728695,21.5841132 C10.9584567,21.584625 13.0207493,20.7246966 14.5645255,19.319635 L14.5645255,20.1378467 C14.5640136,21.7681276 13.9078063,23.2312855 12.8400619,24.3013334 C11.770526,25.3685659 10.307368,26.0250291 8.67708709,26.025541 C7.13868541,26.0250291 5.75025934,25.4402266 4.69889449,24.4769021 C4.60983048,24.4075448 4.48544798,24.3642924 4.36004175,24.454892 L2.70084061,26.1143491 C2.59462921,26.2402672 2.62431722,26.3646497 2.68983557,26.4570408 C4.24666429,27.934019 6.36091088,28.8459014 8.67708709,28.8456455 C11.0769528,28.8459014 13.26286,27.8687566 14.8342768,26.2952923 C16.4077411,24.7236196 17.3851418,22.5382242 17.3841181,20.1378467 C17.3841181,20.1378467 17.4148298,13.1125387 17.4148298,12.8763143 C17.4153417,10.4764487 16.4384528,8.29054139 14.8644767,6.71938053 Z M14.5926779,12.8763143 L14.5647814,13.475449 C14.425043,14.8636191 13.8059458,16.1028374 12.8707736,17.0395451 C11.8007258,18.1072895 10.3378238,18.7637527 8.70728695,18.7642646 C7.07751788,18.7637527 5.61461587,18.1072895 4.54456806,17.0395451 C3.47707955,15.9697532 2.82087228,14.5063393 2.82036042,12.8763143 C2.82087228,11.2460334 3.47707955,9.78287547 4.54456806,8.71282766 C5.61410401,7.64508322 7.07700602,6.98913188 8.70728695,6.98862002 C10.3378238,6.98913188 11.8007258,7.64559508 12.8707736,8.71282766 C13.9385181,9.78287547 14.5944694,11.2460334 14.5949813,12.8763143 L14.5926779,12.8763143 Z" id="wordmark" fill="#ffffff"></path>
            </g>
        </g>
    </g>
</svg>

<svg width="100" height="28" viewBox="0 0 100 28" version="1.1" xmlns="http://www.w3.org/2000/svg"><title>logo_light</title><g id="-Components" stroke="none" stroke-width="1" fill="none" fill-rule="evenodd"><g id="Desktop-HD"><g id="logo_light"><path id="bound" fill-opacity="0" fill="#FFF" d="M0 0h100v30H0z" transform="translate(0 -1)"/><path d="M97.45 6.72a8.689 8.689 0 0 0-6.157-2.551 8.69 8.69 0 0 0-6.158 2.55 8.69 8.69 0 0 0-2.55 6.157c0 2.4.977 4.586 2.55 6.158a8.689 8.689 0 0 0 6.158 2.55c2.4 0 4.586-.977 6.157-2.55a8.687 8.687 0 0 0 2.55-6.158 8.685 8.685 0 0 0-2.55-6.157m-1.994 10.32a5.863 5.863 0 0 1-4.163 1.725 5.864 5.864 0 0 1-4.164-1.724 5.864 5.864 0 0 1-1.724-4.164c0-1.63.657-3.093 1.724-4.163a5.865 5.865 0 0 1 4.164-1.724c1.63 0 3.093.657 4.163 1.724a5.863 5.863 0 0 1 1.724 4.163c0 1.63-.656 3.094-1.724 4.164zM84.986 3.438c.174-.11.159-.262.101-.375l-1.234-1.94C83.75.958 83.602.99 83.5 1.04c-1.84 1.134-6.386 5.056-6.386 11.835v8.001c.013.127.082.262.28.266h2.262c.194-.004.264-.135.278-.26v-8.007c0-5.838 4.12-8.846 5.052-9.439zM72.406 6.72a8.686 8.686 0 0 0-6.157-2.55c-2.4 0-4.586.976-6.158 2.55a8.687 8.687 0 0 0-2.55 6.157 8.689 8.689 0 0 0 2.55 6.158 8.69 8.69 0 0 0 6.158 2.55c2.4 0 4.586-.977 6.156-2.55a8.688 8.688 0 0 0 2.551-6.158c0-2.4-.976-4.585-2.55-6.157zm-1.994 10.32a5.864 5.864 0 0 1-4.163 1.725 5.86 5.86 0 0 1-4.163-1.724 5.86 5.86 0 0 1-1.724-4.164 5.86 5.86 0 0 1 1.724-4.163 5.862 5.862 0 0 1 4.163-1.724c1.63 0 3.093.657 4.163 1.724a5.865 5.865 0 0 1 1.724 4.163c0 1.63-.656 3.094-1.724 4.164zM53.178 6.72a8.686 8.686 0 0 0-6.157-2.55 8.69 8.69 0 0 0-6.157 2.55 8.693 8.693 0 0 0-2.55 6.157c0 2.4.978 4.586 2.55 6.158a8.688 8.688 0 0 0 6.157 2.55c2.251 0 4.314-.86 5.858-2.264v.818c-.001 1.63-.657 3.093-1.725 4.163a5.863 5.863 0 0 1-4.163 1.725 5.855 5.855 0 0 1-3.978-1.55c-.09-.068-.214-.112-.339-.021l-1.659 1.66c-.106.125-.076.25-.01.342a8.684 8.684 0 0 0 5.986 2.389 8.69 8.69 0 0 0 6.157-2.55 8.686 8.686 0 0 0 2.55-6.158l.03-7.262c.001-2.4-.976-4.585-2.55-6.157zm-.271 6.157l-.028.6a5.86 5.86 0 0 1-1.694 3.564 5.863 5.863 0 0 1-4.164 1.724 5.862 5.862 0 0 1-4.162-1.724 5.863 5.863 0 0 1-1.725-4.164c0-1.63.657-3.093 1.725-4.163a5.86 5.86 0 0 1 4.162-1.724c1.63 0 3.094.657 4.164 1.724a5.863 5.863 0 0 1 1.724 4.163h-.002zM33.994 6.72a8.688 8.688 0 0 0-6.158-2.55c-2.4 0-4.585.976-6.156 2.55a8.686 8.686 0 0 0-2.55 6.157 8.688 8.688 0 0 0 2.55 6.158 8.687 8.687 0 0 0 6.156 2.55c2.4 0 4.586-.977 6.158-2.55a8.688 8.688 0 0 0 2.55-6.158c0-2.4-.977-4.585-2.55-6.157zM32 17.04a5.863 5.863 0 0 1-4.164 1.725 5.86 5.86 0 0 1-4.162-1.724 5.863 5.863 0 0 1-1.724-4.164c0-1.63.656-3.093 1.724-4.163a5.862 5.862 0 0 1 4.162-1.724c1.63 0 3.094.657 4.164 1.724a5.863 5.863 0 0 1 1.724 4.163c0 1.63-.656 3.093-1.724 4.164zM14.864 6.72a8.686 8.686 0 0 0-6.157-2.55 8.69 8.69 0 0 0-6.157 2.55A8.693 8.693 0 0 0 0 12.876c0 2.4.978 4.586 2.55 6.158a8.688 8.688 0 0 0 6.157 2.55c2.251 0 4.314-.86 5.858-2.264v.818c-.001 1.63-.657 3.093-1.725 4.163a5.863 5.863 0 0 1-4.163 1.725 5.856 5.856 0 0 1-3.978-1.55c-.09-.068-.214-.112-.339-.021l-1.66 1.66c-.105.125-.076.25-.01.342a8.684 8.684 0 0 0 5.987 2.389 8.69 8.69 0 0 0 6.157-2.55 8.686 8.686 0 0 0 2.55-6.158l.03-7.262c.001-2.4-.976-4.585-2.55-6.157zm-.271 6.157l-.028.6a5.86 5.86 0 0 1-1.694 3.564 5.863 5.863 0 0 1-4.164 1.724 5.862 5.862 0 0 1-4.162-1.724 5.863 5.863 0 0 1-1.725-4.164c0-1.63.657-3.093 1.725-4.163a5.86 5.86 0 0 1 4.162-1.724c1.63 0 3.094.657 4.164 1.724a5.863 5.863 0 0 1 1.724 4.163h-.002z" id="wordmark" fill="#323237" transform="translate(0 -1)"/></g></g></g></svg>
